X: 3
T: The Ships In Full Sail
R: jig
M: 6/8
L: 1/8
K: Gmaj
E|DGG BGG|dBG GBd|ege dBG|AGA BGE|DGG BGG|dBG GBd|ege dBG|AGF G2:|A|Bdd dBd|egg g2d|edB dBG|AGA BGE|DGG BGG|dBG GBd|ege dBG|AGF G2:|


Tune 261	Setting 22793

